!!!OTL: 414. Liedesgruss.
!!!ODT: 1892
!!!ARE: Europa, Mitteleuropa, Deutschland
!!!SCT: B0414
!!!TXL: @@DE
!!!YEM: Copyright 1995, estate of Helmut Schaffrath.
**kern	**text
*ICvox	*
*Ivox	*
*clefG2	*
*M3/4	*
*k[b-]	*
*F:	*
!LO:TX:a:t=Gemüthlich.	!
{8.cc	Kommt
16dd	die
=1	=1
4cc	Nacht
4b-	mit
8.b-	ih-
16cc	-rem
=2	=2
4b-	Schat-
4a}	-ten,
{8.a	ſchleich'
16b-/	ich
=3	=3
4.a	mich
8g	ʒum
8b-	Gar-
8dd	-ten
=4	=4
2cc}	hin,
{8cc	ſetʒ'
8ff	mich
=5	=5
4.ee	lauſchend
8dd	.
8cc	auf
8b-	die
=6	=6
4dd	Moosbank,
4cc}	.
{8a	in
8cc	die
=7	=7
4.dd	Lau-
8cc	-be
8b-	von
8cc	Jas-
=8	=8
2a}	-min.
==	==
!!!AGN: Liebes - Lied, Liebes - Lust
!!!GTL: Liebeslieder - Liebeslust
!!!ONB: ESAC (Essen Associative Code) Database: BOEHME
!!!AMT: simple triple
!!!AIN: vox
!!!EED: Helmut Schaffrath
!!!EEV: 1.0
!!Mündlich aus Fellerthauſen (Hochwald). 1892.
!!@@COMMENT:"!!Aus Becker's handſchriftl. Liederſammlung 1894. Vergl. Erlach 5, 480. Das Lied war ſchon
!!vor 1830 bekannt, aber bis heute nicht ſein Verfaſſer."
!!@@END:
!!!URL-scan: https://archive.org/details/BoehmeVtLieder1895/page/n339/mode/2up
!!!ENC: Anna Maria Matuszewska
!!!EEV: 2024/08/07
*-	*-
